public/images/mobile/project/share.svg

<svg width="24" height="24" viewBox="0 0 24 24" fill="none" xmlns="http://www.w3.org/2000/svg">
<path d="M21 12V15C21 18.3137 18.3137 21 15 21H9C5.68629 21 3 18.3137 3 15V9C3 5.68629 5.68629 3 9 3H12" stroke="white" stroke-width="2" stroke-linecap="round" stroke-linejoin="round"/>
<path d="M12 16V10C12 7.79086 13.7909 6 16 6H20" stroke="white" stroke-width="2" stroke-linecap="round" stroke-linejoin="round"/>
<path d="M18.1719 3.17188L21.0003 6.0003L18.1719 8.82873" stroke="white" stroke-width="2" stroke-linecap="round" stroke-linejoin="round"/>
</svg>

<svg xmlns="http://www.w3.org/2000/svg" width="24" height="24" fill="none"><path stroke="#fff" stroke-linecap="round" stroke-linejoin="round" stroke-width="2" d="M21 12v3a6 6 0 0 1-6 6H9a6 6 0 0 1-6-6V9a6 6 0 0 1 6-6h3"/><path stroke="#fff" stroke-linecap="round" stroke-linejoin="round" stroke-width="2" d="M12 16v-6a4 4 0 0 1 4-4h4"/><path stroke="#fff" stroke-linecap="round" stroke-linejoin="round" stroke-width="2" d="M18.172 3.172 21 6l-2.828 2.83"/></svg>
